public/Plesk.svg

<svg width="321" height="98" viewBox="0 0 321 98" fill="none" xmlns="http://www.w3.org/2000/svg">
<g clip-path="url(#clip0_9_33653)">
<path d="M89.4989 80.3764H84.9375V32.33C88.5863 31.1682 92.3867 30.5593 96.2137 30.5233C98.7005 30.4903 101.172 30.9188 103.504 31.7872C105.605 32.5501 107.524 33.7433 109.142 35.2913C110.722 36.7953 111.948 38.6339 112.733 40.6738C113.581 42.8233 114.008 45.1172 113.99 47.4295C114.058 50.0518 113.542 52.6561 112.481 55.0522C111.544 57.0675 110.184 58.8546 108.494 60.2901C106.837 61.6654 104.919 62.6859 102.856 63.2892C100.762 63.9383 98.5825 64.267 96.3911 64.2642C95.2252 64.2717 94.0605 64.1876 92.9075 64.0129C91.7584 63.8319 90.6093 63.5794 89.4952 63.2904L89.4989 80.3764ZM108.784 47.3215C108.928 43.9201 107.786 40.59 105.588 38.0014C104.433 36.7955 103.033 35.8548 101.483 35.2437C99.9339 34.6326 98.2714 34.3656 96.6097 34.4608C95.3991 34.4614 94.1896 34.534 92.9875 34.6782C91.7997 34.8264 90.6315 35.1049 89.5039 35.5087V58.9546C90.5778 59.3105 91.6687 59.612 92.7727 59.8579C93.8447 60.1051 94.9416 60.2265 96.0414 60.2198C97.7358 60.3089 99.431 60.0577 101.028 59.4809C102.625 58.9041 104.092 58.0132 105.343 56.8601C107.637 54.6555 108.784 51.476 108.784 47.3215Z" fill="black"/>
<path d="M123.188 63.9388V17.5898H127.784V63.9036H123.188V63.9388Z" fill="black"/>
<path d="M165.451 59.0966C163.968 60.7267 162.156 62.0199 160.136 62.8897C157.818 63.8127 155.338 64.255 152.846 64.1901C150.464 64.2417 148.099 63.7732 145.915 62.8168C144.014 61.9875 142.33 60.7261 140.995 59.1318C139.666 57.5807 138.663 55.7738 138.05 53.8209C137.376 51.7961 137.037 49.6741 137.044 47.5389C136.987 44.9593 137.389 42.3902 138.23 39.9527C138.925 37.9633 140.026 36.1422 141.462 34.6067C142.798 33.2243 144.418 32.1523 146.209 31.4656C148.037 30.789 149.971 30.4465 151.919 30.4542C156.732 30.4542 160.395 31.9355 162.837 34.9333C165.279 37.896 166.464 42.231 166.393 47.9384H141.713C141.679 51.2081 142.828 54.3787 144.946 56.8589C145.999 57.9738 147.279 58.8476 148.698 59.421C150.117 59.9944 151.642 60.254 153.169 60.1821C154.977 60.2197 156.773 59.888 158.449 59.2072C160.087 58.5233 161.549 57.4732 162.723 56.1365L165.451 59.0966ZM161.751 44.0687C161.747 42.768 161.541 41.4759 161.141 40.2391C160.762 39.1194 160.163 38.0876 159.381 37.2049C158.553 36.311 157.533 35.6191 156.399 35.1821C153.627 34.1706 150.589 34.1706 147.816 35.1821C146.726 35.6084 145.744 36.2752 144.943 37.1333C144.158 38.0349 143.505 39.0448 143.004 40.1324C142.405 41.3714 142.017 42.7022 141.854 44.0699L161.751 44.0687Z" fill="black"/>
<path d="M196.522 38.6513C195.524 37.3199 194.249 36.2228 192.788 35.4361C191.313 34.7083 189.682 34.3608 188.041 34.4247C186.305 34.2582 184.565 34.7051 183.121 35.6887C182.664 36.0772 182.3 36.5652 182.057 37.1159C181.815 37.6666 181.7 38.2655 181.721 38.8674C181.697 39.664 181.923 40.4481 182.368 41.1076C182.824 41.7541 183.412 42.2958 184.092 42.6969C184.875 43.1693 185.706 43.5567 186.57 43.8528C187.504 44.1782 188.473 44.5037 189.515 44.8278C190.772 45.2248 191.993 45.6583 193.25 46.1282C194.467 46.5628 195.617 47.1712 196.662 47.9349C197.678 48.6674 198.534 49.6018 199.176 50.6802C199.858 51.9288 200.192 53.3387 200.146 54.7622C200.166 56.1714 199.833 57.563 199.176 58.8079C198.532 59.9897 197.637 61.0138 196.553 61.8069C195.376 62.6644 194.048 63.2894 192.639 63.6488C188.753 64.6651 184.649 64.4376 180.898 62.998C178.705 62.018 176.755 60.5622 175.188 58.735L178.778 55.5563C179.845 57.0231 181.247 58.2093 182.866 59.0142C184.486 59.8192 186.274 60.2191 188.08 60.1799C190.026 60.3245 191.967 59.8303 193.611 58.7715C194.153 58.3942 194.598 57.893 194.911 57.309C195.223 56.725 195.393 56.0748 195.407 55.4118C195.445 54.5118 195.22 53.6204 194.76 52.8475C194.292 52.1363 193.68 51.5329 192.964 51.0772C192.144 50.5593 191.262 50.1465 190.341 49.8484C189.335 49.5234 188.294 49.1984 187.218 48.8735C185.962 48.5116 184.74 48.1196 183.518 47.6811C182.354 47.2761 181.253 46.7044 180.25 45.9837C179.177 45.2556 178.309 44.2611 177.73 43.0965C177.151 41.9318 176.881 40.6365 176.946 39.336C176.878 38.0352 177.132 36.7377 177.683 35.5591C178.234 34.3804 179.067 33.3571 180.106 32.5803C182.513 30.9 185.403 30.0614 188.33 30.1932C190.51 30.1637 192.672 30.5818 194.686 31.4219C196.762 32.3926 198.592 33.8254 200.037 35.612L196.664 38.7191L196.522 38.6513Z" fill="black"/>
<path d="M208.734 63.9404V17.6631H213.331V63.9404H208.734ZM213.367 46.8533L229.168 30.8139H235.346L219.149 46.7088L235.274 63.904H228.881L213.367 46.8533Z" fill="black"/>
<path d="M139.205 80.3764H111.477V76.0054H139.205V80.3764Z" fill="#53BCE6"/>
</g>
<defs>
<clipPath id="clip0_9_33653">
<rect width="321" height="98" fill="white"/>
</clipPath>
</defs>
</svg>

<svg xmlns="http://www.w3.org/2000/svg" width="321" height="98" fill="none" viewBox="0 0 321 98"><g clip-path="url(#a)"><path fill="#000" d="M89.499 80.376h-4.561V32.33a38.4 38.4 0 0 1 11.276-1.807 20.1 20.1 0 0 1 7.29 1.264 16.1 16.1 0 0 1 5.638 3.504 14.7 14.7 0 0 1 3.591 5.383 18 18 0 0 1 1.257 6.755 17.7 17.7 0 0 1-1.509 7.623 15.4 15.4 0 0 1-3.987 5.238 15.75 15.75 0 0 1-5.638 3 21.7 21.7 0 0 1-6.465.974 22 22 0 0 1-3.484-.251 36 36 0 0 1-3.412-.723zm19.285-33.055a13.52 13.52 0 0 0-3.196-9.32 11.55 11.55 0 0 0-4.105-2.757 11.5 11.5 0 0 0-4.873-.783q-1.817 0-3.623.217a16.3 16.3 0 0 0-3.483.83v23.447q1.612.533 3.269.903c1.072.247 2.169.369 3.268.362 1.695.089 3.39-.162 4.987-.74a12.8 12.8 0 0 0 4.315-2.62q3.441-3.306 3.441-9.538M123.188 63.939v-46.35h4.596v46.315h-4.596zM165.451 59.097a15.4 15.4 0 0 1-5.315 3.793 18.4 18.4 0 0 1-7.29 1.3 16.4 16.4 0 0 1-6.931-1.373 13.4 13.4 0 0 1-4.92-3.685 15.1 15.1 0 0 1-2.945-5.311 19.7 19.7 0 0 1-1.006-6.282 21.8 21.8 0 0 1 1.186-7.586 15.1 15.1 0 0 1 3.232-5.346 13.15 13.15 0 0 1 4.747-3.141 16.3 16.3 0 0 1 5.71-1.012c4.813 0 8.476 1.482 10.918 4.48q3.663 4.443 3.556 13.004h-24.68a13.52 13.52 0 0 0 3.233 8.92 10.65 10.65 0 0 0 3.752 2.563c1.419.573 2.944.833 4.471.761a13.3 13.3 0 0 0 5.28-.975 11.7 11.7 0 0 0 4.274-3.07zm-3.7-15.028c-.004-1.301-.21-2.593-.61-3.83a8.9 8.9 0 0 0-1.76-3.034 8 8 0 0 0-2.982-2.023 12.52 12.52 0 0 0-8.583 0 7.8 7.8 0 0 0-2.873 1.951 12.6 12.6 0 0 0-1.939 3 12.4 12.4 0 0 0-1.15 3.937zM196.522 38.651a11.46 11.46 0 0 0-3.734-3.215 9.86 9.86 0 0 0-4.747-1.011 7.47 7.47 0 0 0-4.92 1.264 3.98 3.98 0 0 0-1.4 3.178 3.8 3.8 0 0 0 .647 2.24 5.6 5.6 0 0 0 1.724 1.59c.783.472 1.614.86 2.478 1.156.934.325 1.903.65 2.945.975 1.257.397 2.478.83 3.735 1.3a13.5 13.5 0 0 1 3.412 1.807 9.2 9.2 0 0 1 2.514 2.745 8 8 0 0 1 .97 4.082c.02 1.41-.313 2.801-.97 4.046a9.1 9.1 0 0 1-2.623 2.999 11.5 11.5 0 0 1-3.914 1.842 19.2 19.2 0 0 1-11.741-.651 16.3 16.3 0 0 1-5.71-4.263l3.59-3.179a11.25 11.25 0 0 0 4.088 3.458 11.2 11.2 0 0 0 5.214 1.166 9 9 0 0 0 5.531-1.408 4.2 4.2 0 0 0 1.796-3.36 4.63 4.63 0 0 0-.647-2.565 6 6 0 0 0-1.796-1.77c-.82-.518-1.702-.93-2.623-1.229a170 170 0 0 0-3.123-.974 61 61 0 0 1-3.7-1.193 12.8 12.8 0 0 1-3.268-1.697 7.55 7.55 0 0 1-2.52-2.888 7.6 7.6 0 0 1-.784-3.76 7.94 7.94 0 0 1 .737-3.777 7.9 7.9 0 0 1 2.423-2.979 13.32 13.32 0 0 1 8.224-2.387c2.18-.03 4.342.389 6.356 1.229a15.1 15.1 0 0 1 5.351 4.19l-3.373 3.107zM208.734 63.94V17.663h4.597V63.94zm4.633-17.087 15.801-16.04h6.178L219.149 46.71l16.125 17.195h-6.393z"/><path fill="#53bce6" d="M139.205 80.376h-27.728v-4.37h27.728z"/></g><defs><clipPath id="a"><path fill="#fff" d="M0 0h321v98H0z"/></clipPath></defs></svg>
